X:1
T:Hananiah, 88.86.88.88
T:Hananiah, 88.86.88.88
T:William Owen Jones, 1919
T:Public Domain Courtesy of the Cyber Hymnal™
C:William Owen Jones, 1919
Z:Public Domain
Z:Courtesy of the Cyber Hymnal™
%%score ( 1 2 ) ( 3 4 )
L:1/8
Q:1/4=95
M:6/8
K:Ab
V:1 treble 
V:2 treble 
V:3 bass 
V:4 bass 
V:1
 [CA][=B,G][B,F] [CE]2 [CF] | [CG]2 [CA] [DG]3 | [DF][DG][DA] [DG]2 [DF] | (EG)[Ed] [Ec]3 | %4
 [FB][FA][EG] [DF]2 [EG] | [FA]2 [FB] E3 | [CE][DF][EA] [FB]2 [EG] | [EA]3- [EA]2 z | %8
 [Ec][EA][DF] [CE]3 | [CE][CF][CA] [DG]3 | [DB][DG][DF] [DE]2 [DE] | [EB]2 [Ed] [Ec]3 | %12
 [Ec][Ec][DB] [CA]2 [EB] | c2 [_Gc] [Fd]3 | [EB][Ec][Ed] [Ee]2 [Ec] | [Ec]2 [DB] [CA]3 |] %16
V:2
 x6 | x6 | x6 | D2 x4 | x6 | x3 E3 | x6 | x6 | x6 | x6 | x6 | x6 | x6 | (EA) x4 | x6 | x6 |] %16
V:3
 [A,,E,][A,,=D,][A,,D,] [A,,E,]2 [A,,E,] | [A,,E,]2 [A,,E,] [B,,E,]3 | %2
 [E,G,][E,B,][E,B,] [E,B,]2 [E,A,] | [E,G,]2 [E,B,] A,3 | [D,A,][D,A,][D,A,] [D,A,]2 [D,B,] | %5
 [D,A,]2 [D,A,] [C,A,]3 | [A,,A,][D,A,][C,A,] [B,,D]2 [E,B,] | [A,,C]3- [A,,C]2 z | %8
 [A,,A,][C,A,][D,A,] [A,,A,]3 | [A,,A,][A,,E,][A,,E,] [B,,E,]3 | %10
 [E,G,][E,B,][E,A,] [E,G,]2 [E,G,] | ([G,B,][F,A,])[E,G,] A,3 | %12
 [A,,A,][C,A,][E,G,] [F,A,]2 [E,G,] | A,2 A, [D,A,]3 | [D,G,][C,A,][B,,G,] [C,A,]2 [A,,A,] | %15
 [E,G,]2 [E,G,] [A,,A,]3 |] %16
V:4
 x6 | x6 | x6 | x3 A,3 | x6 | x6 | x6 | x6 | x6 | x6 | x6 | x3 A,3 | x6 | A,2 A, x3 | x6 | x6 |] %16

